images/svg/about/hp.svg

<svg width="140" height="27" viewBox="0 0 140 27" fill="none" xmlns="http://www.w3.org/2000/svg">
<path fill-rule="evenodd" clip-rule="evenodd" d="M39.4573 0H22.8514L22.0971 2.02119C28.6815 2.33583 33.9152 7.32367 33.9152 13.4299C33.9152 19.1057 29.3932 23.8147 23.468 24.7038L22.7571 26.8728H39.4573C40.3929 26.8764 41.2915 26.5007 41.9545 25.8285C42.6176 25.1564 42.9905 24.2431 42.9908 23.2905V3.57003C42.9908 1.58084 41.4082 0 39.4573 0ZM9.0539 13.4307C9.0539 18.4277 12.571 22.838 17.4635 24.4409L16.6097 26.8728H3.52533C1.5782 26.8728 0 25.2477 0 23.2639V3.59746C-0.00123979 1.61351 1.57662 0.003705 3.52533 0.000761851H17.0332L16.1861 2.40059C12.1085 4.60463 9.0539 9.03784 9.0539 13.4307ZM131.553 16.3912H123.838V26.981H131.506C134.283 26.981 134.47 24.2497 134.47 22.7641V19.6497C134.47 17.7808 133.529 16.3912 131.553 16.3912ZM132.071 23.0521V20.0329C132.119 19.3632 131.649 18.596 130.942 18.596H126.236V24.7769H130.754C131.6 24.7769 132.071 23.9617 132.071 23.0521ZM120.525 22.8647C121.092 22.3832 121.469 21.6625 121.469 19.7388C121.469 17.5751 120.006 16.3729 118.308 16.3729H111.37V26.9992H113.73V23.8734H117.787C118.732 23.8734 119.204 24.6428 119.204 25.0756V26.9985H121.469V24.7868C121.469 24.1621 121.28 23.2494 120.525 22.8647ZM113.729 21.6625H118.07C118.968 21.6625 119.203 20.5563 119.203 20.0283C119.203 19.4981 118.968 18.5854 117.787 18.5854H113.729V21.6625ZM104.812 16.3935H101.708L97.5222 25.4938V26.9787H99.4035L100.25 25.0626H106.261L107.118 26.9787H109.565L104.812 16.3935ZM103.26 18.3576L101.238 22.8601H105.274L103.26 18.3576ZM86.6103 26.9901V16.3828H89.0146V20.3666H90.051L94.1503 16.3828H97.3546L92.3117 21.3745L96.5053 25.5982V26.9901H94.7146L90.2396 22.5736H89.0146V26.9901H86.6103ZM73.9839 24.4851V18.887C73.9839 17.6917 75.2523 16.3996 76.38 16.3996H82.1608C83.6649 16.4468 84.5561 18.0269 84.5561 18.9358V19.8439H82.1608C82.1121 19.3655 81.6901 18.6486 81.3144 18.6486H77.1785C76.2393 18.6486 76.3808 19.6055 76.3808 19.6055V23.8155C76.3808 24.5811 76.85 24.7723 77.1321 24.7723H81.2201C82.1129 24.7723 82.2079 24.0067 82.2079 23.5282H84.5569V24.4851C84.5569 26.0644 83.4771 26.9733 82.1615 26.9733H76.4279C74.6417 26.9733 73.9839 25.5852 73.9839 24.4851ZM68.1635 16.3729H65.049L60.1879 27H62.7359L63.586 25.0771H69.616L70.4758 27H72.9303L68.1635 16.3729ZM66.6055 18.3438L64.5768 22.8647H68.5878L66.6055 18.3438ZM57.4932 16.3889H49.9143V26.984H52.3149V24.0113H57.4925C58.9046 24.0113 60.5052 23.1968 60.5052 20.2241C60.506 17.2041 58.7639 16.3889 57.4932 16.3889ZM52.3149 21.8065H56.9283C57.9639 21.8065 57.9639 20.7041 57.9639 20.2249C57.9639 19.7457 57.9639 18.5945 56.7868 18.5945H52.3149V21.8065ZM49.9143 0.173702V10.7688H52.3149V6.54963H58.5753V10.7688H60.9759V0.173702H58.5753V4.34484H52.3149V0.173702H49.9143ZM65.0931 0.166845H73.1039V2.37698H65.8467V4.34484H71.8789V6.55268H65.8467V8.56854H73.1039V10.7764H64.9517C64.0088 10.7764 63.4439 10.0084 63.4439 9.38448V1.7515C63.4439 0.790801 64.0088 0.166845 65.0931 0.166845ZM92.4464 0.177511V9.18411C92.4464 9.99853 93.0585 10.765 94.1406 10.765H101.199V8.56092H94.847V0.177511H92.4464ZM119.782 2.37469V10.7764H117.379V2.37469H113.914V0.165322H123.294V2.37469H119.782ZM130.897 10.7832V2.37012H134.412V0.158465H125.023V2.37012H128.491V10.7832H130.897ZM104.148 0.171416H112.153H112.153V2.37698H104.901V4.34407H110.929V6.5504H104.901V8.56473H112.153V10.771H104.006C103.064 10.771 102.499 10.0039 102.499 9.37991V1.75454C102.499 0.794611 103.064 0.171416 104.148 0.171416ZM85.8882 10.787C85.1795 10.787 84.4955 9.70522 84.3533 9.17573L82.5836 3.61955L80.2698 10.7878H78.8068C78.0982 10.7878 77.4838 9.6816 77.3424 9.15288L74.4628 0.156179H76.8702L79.0904 7.42043L81.4506 0.204176H83.7158L86.076 7.42043L88.2947 0.156179H90.7036L87.304 10.7878H85.8882V10.787ZM137.664 0.0937077C138.285 0.0836353 138.883 0.334067 139.317 0.78623C139.771 1.24791 140 1.80711 140 2.46306C140.009 3.09661 139.762 3.70627 139.317 4.14904C138.862 4.61453 138.31 4.84766 137.664 4.84766C137.017 4.84766 136.467 4.61529 136.014 4.14904C135.563 3.68507 135.338 3.12359 135.338 2.46306C135.329 1.8323 135.576 1.22567 136.02 0.78623C136.474 0.32531 137.021 0.0937077 137.664 0.0937077ZM139.085 3.91896C138.714 4.31179 138.199 4.52984 137.664 4.52082C137.129 4.5304 136.614 4.31226 136.244 3.91896C135.863 3.53485 135.652 3.0084 135.662 2.4623C135.662 1.89701 135.857 1.41476 136.247 1.01555C136.638 0.614814 137.11 0.413685 137.665 0.413685C138.219 0.413685 138.694 0.614814 139.085 1.01555C139.475 1.41476 139.67 1.89701 139.67 2.4623C139.67 3.03217 139.475 3.51747 139.085 3.91896ZM18.3261 0L12 18.0009V18.0016H14.6717L17.7646 9.33768H18.608C19.1694 9.33768 19.1694 9.75415 19.0762 10.2178L16.3114 18.0016H19.0762C19.0762 18.0016 21.466 11.423 21.8881 10.0328C22.3094 8.64259 21.466 7.9475 19.8256 7.9475H18.2322L21.044 0H18.3261ZM24.4591 7.90179H28.8323C30.1484 7.90179 31.5129 8.59984 30.8076 10.5075L28.7854 16.1839C28.4095 17.2542 28.08 17.9987 26.1047 17.9987H23.6322L20.8382 26H18.1576L24.4591 7.90179ZM28.08 9.99592C28.08 9.99592 26.1047 15.5323 26.0578 15.8117C26.0108 16.0911 25.7752 16.6026 25.3054 16.6026H24.1191L26.6692 9.29788H27.8451C28.2679 9.29788 28.2209 9.62368 28.08 9.99592Z" fill="white"/>
</svg>

<svg width="140" height="27" fill="none" xmlns="http://www.w3.org/2000/svg"><path fill-rule="evenodd" clip-rule="evenodd" d="M39.457 0H22.851l-.754 2.021c6.584.315 11.818 5.303 11.818 11.409 0 5.676-4.522 10.385-10.447 11.274l-.71 2.169h16.7a3.488 3.488 0 0 0 2.497-1.045 3.616 3.616 0 0 0 1.036-2.537V3.57c0-1.99-1.583-3.57-3.534-3.57zM9.054 13.43c0 4.998 3.517 9.408 8.41 11.01l-.854 2.433H3.525C1.578 26.873 0 25.248 0 23.263V3.598C-.001 1.614 1.577.004 3.525.001h13.508l-.847 2.4c-4.078 2.204-7.132 6.637-7.132 11.03zm122.499 2.961h-7.715v10.59h7.668c2.777 0 2.964-2.731 2.964-4.217V19.65c0-1.87-.941-3.259-2.917-3.259zm.518 6.661v-3.02c.048-.669-.422-1.436-1.129-1.436h-4.706v6.18h4.518c.846 0 1.317-.814 1.317-1.724zm-11.546-.187c.567-.482.944-1.202.944-3.126 0-2.164-1.463-3.366-3.161-3.366h-6.938v10.626h2.36v-3.126h4.057c.945 0 1.417.77 1.417 1.203v1.922h2.265v-2.211c0-.625-.189-1.538-.944-1.922zm-6.796-1.202h4.341c.898 0 1.133-1.107 1.133-1.635 0-.53-.235-1.443-1.416-1.443h-4.058v3.078zm-8.917-5.27h-3.104l-4.186 9.1v1.486h1.881l.847-1.916h6.011l.857 1.916h2.447l-4.753-10.585zm-1.552 1.965-2.022 4.502h4.036l-2.014-4.502zM86.61 26.99V16.383h2.405v3.984h1.036l4.1-3.984h3.204l-5.043 4.992 4.193 4.223v1.392h-1.79l-4.475-4.416h-1.225v4.416H86.61zm-12.626-2.505v-5.598c0-1.195 1.268-2.487 2.396-2.487h5.78c1.505.047 2.396 1.627 2.396 2.536v.908h-2.395c-.049-.479-.47-1.195-.847-1.195H77.18c-.94 0-.798.956-.798.956v4.21c0 .766.469.957.751.957h4.088c.893 0 .988-.765.988-1.244h2.349v.957c0 1.58-1.08 2.488-2.395 2.488h-5.734c-1.786 0-2.444-1.388-2.444-2.488zm-5.82-8.112h-3.115L60.188 27h2.548l.85-1.923h6.03l.86 1.923h2.454l-4.767-10.627zm-1.558 1.97-2.03 4.522h4.012l-1.982-4.521zm-9.113-1.954h-7.579v10.595h2.4v-2.973h5.178c1.413 0 3.013-.814 3.013-3.787.001-3.02-1.741-3.835-3.012-3.835zm-5.178 5.418h4.613c1.036 0 1.036-1.103 1.036-1.582 0-.48 0-1.63-1.177-1.63h-4.472v3.212zM49.915.174v10.595h2.4v-4.22h6.26v4.22h2.4V.174h-2.4v4.17h-6.26V.175h-2.4zM65.092.167h8.01v2.21h-7.256v1.968h6.032v2.208h-6.032v2.016h7.257v2.207h-8.152c-.943 0-1.508-.768-1.508-1.392V1.751c0-.96.565-1.584 1.65-1.584zm27.353.01v9.007c0 .815.612 1.581 1.695 1.581h7.058V8.561h-6.352V.178h-2.4zm27.336 2.198v8.401h-2.403V2.375h-3.465V.165h9.38v2.21h-3.512zm11.115 8.408V2.37h3.515V.158h-9.389V2.37h3.468v8.413h2.406zM104.148.171h8.005v2.206h-7.252v1.967h6.028V6.55h-6.028v2.015h7.252v2.206h-8.147c-.942 0-1.507-.767-1.507-1.391V1.755c0-.96.565-1.584 1.649-1.584zm-18.26 10.616c-.709 0-1.392-1.082-1.535-1.611l-1.77-5.556-2.313 7.168h-1.463c-.709 0-1.323-1.106-1.465-1.635L74.462.156h2.408l2.22 7.264L81.45.204h2.266l2.36 7.216L88.295.156h2.409l-3.4 10.632h-1.416v-.001zM137.664.094a2.24 2.24 0 0 1 1.653.692c.454.462.683 1.021.683 1.677a2.332 2.332 0 0 1-.683 1.686 2.228 2.228 0 0 1-1.653.699 2.214 2.214 0 0 1-1.65-.699 2.329 2.329 0 0 1-.676-1.686 2.314 2.314 0 0 1 .682-1.677 2.223 2.223 0 0 1 1.644-.692zm1.421 3.825a1.91 1.91 0 0 1-1.421.602 1.903 1.903 0 0 1-1.42-.602 2.017 2.017 0 0 1-.582-1.457c0-.565.195-1.047.585-1.446.391-.401.863-.602 1.418-.602.554 0 1.029.2 1.42.602.39.399.585.881.585 1.446 0 .57-.195 1.055-.585 1.457zM18.326 0 12 18v.002h2.672l3.093-8.664h.843c.561 0 .561.416.468.88l-2.765 7.784h2.765s2.39-6.579 2.812-7.97c.421-1.39-.422-2.085-2.062-2.085h-1.594L21.044 0h-2.718zm6.133 7.902h4.373c1.316 0 2.68.698 1.976 2.606l-2.023 5.676c-.375 1.07-.705 1.815-2.68 1.815h-2.473L20.838 26h-2.68l6.301-18.098zm3.621 2.094s-1.975 5.536-2.022 5.816c-.047.28-.283.79-.753.79H24.12l2.55-7.304h1.176c.423 0 .376.326.235.698z" fill="#fff"/></svg>
